src/assets/xLogo.svg

<svg width="25" height="24" viewBox="0 0 25 24" fill="none" xmlns="http://www.w3.org/2000/svg">
<path d="M20.0155 18.3674L14.6487 10.7564L14.0419 9.89561L10.2019 4.45119L9.88383 4H5.16602L6.31651 5.63208L11.4215 12.8718L12.0283 13.7316L16.1301 19.5492L16.4482 20H21.166L20.0155 18.3674ZM17.0085 18.9578L12.7474 12.9144L12.1406 12.0542L7.19597 5.04163H9.32301L13.322 10.7126L13.9288 11.5728L19.1361 18.9576L17.0085 18.9578Z" fill="white"/>
<path d="M12.5273 12L13.166 12.8662L12.4088 13.689L6.59875 20H5.16602L11.77 12.8232L12.5273 12Z" fill="white"/>
<path d="M21.166 4L14.6242 11.1373L13.8332 12L13.166 11.0912L13.957 10.228L18.3884 5.39094L19.6695 4H21.166Z" fill="white"/>
</svg>

<svg width="25" height="24" fill="none" xmlns="http://www.w3.org/2000/svg"><path d="m20.015 18.367-5.366-7.61-.607-.861-3.84-5.445L9.884 4H5.166l1.15 1.632 5.106 7.24.606.86 4.102 5.817.318.451h4.718l-1.15-1.633Zm-3.006.59-4.262-6.043-.606-.86-4.945-7.012h2.127l3.999 5.67.607.86 5.207 7.386H17.01Z" fill="#fff"/><path d="m12.527 12 .639.866-.757.823L6.599 20H5.166l6.604-7.177.757-.823ZM21.166 4l-6.542 7.137-.79.863-.668-.909.791-.863 4.431-4.837L19.67 4h1.497Z" fill="#fff"/></svg>
